packages/icons/raw/imported/ShopBag.svg

<svg width="32" height="32" viewBox="0 0 32 32" fill="none" xmlns="http://www.w3.org/2000/svg">
<path d="M21 25.5V25V25.5ZM11 25.5V26V25.5ZM25 10.5H24.5H25ZM25 21.5H25.5H25ZM7 10.5H7.5H7ZM21 6.50001L21 7.00001L21 6.50001ZM11 6.5L11 6L11 6.5ZM20.5 11.6154H20H20.5ZM11.5 11.6154H11H11.5ZM12 10.1539C12 9.87771 11.7761 9.65385 11.5 9.65385C11.2238 9.65385 11 9.87771 11 10.1539H12ZM21 10.1539C21 9.87771 20.7761 9.65385 20.5 9.65385C20.2238 9.65385 20 9.87771 20 10.1539H21ZM21 25H11V26H21V25ZM24.5 10.5V21.5H25.5V10.5H24.5ZM6.5 10.5L6.5 21.5H7.5L7.5 10.5H6.5ZM21 6.00001L11 6L11 7L21 7.00001L21 6.00001ZM25.5 10.5C25.5 8.01473 23.4853 6.00001 21 6.00001L21 7.00001C22.933 7.00001 24.5 8.56702 24.5 10.5H25.5ZM7.5 10.5C7.5 8.567 9.06701 7 11 7L11 6C8.51472 6 6.5 8.01472 6.5 10.5H7.5ZM11 25C9.067 25 7.5 23.433 7.5 21.5H6.5C6.5 23.9853 8.51472 26 11 26V25ZM21 26C23.4853 26 25.5 23.9852 25.5 21.5H24.5C24.5 23.433 22.933 25 21 25V26ZM20 11.6154C20 13.7486 18.2214 15.5 16 15.5V16.5C18.7491 16.5 21 14.3252 21 11.6154H20ZM16 15.5C13.7785 15.5 12 13.7486 12 11.6154H11C11 14.3252 13.2509 16.5 16 16.5V15.5ZM12 11.6154V10.1539H11V11.6154H12ZM21 11.6154V10.1539H20V11.6154H21Z" fill="black"/>
</svg>

<svg width="32" height="32" fill="none" xmlns="http://www.w3.org/2000/svg"><path d="M21 25.5V25v.5Zm-10 0v.5-.5Zm14-15h-.5.5Zm0 11h.5-.5Zm-18-11h.5H7Zm14-4V7v-.5Zm-10 0V6v.5Zm9.5 5.115H20h.5Zm-9 0H11h.5Zm.5-1.461a.5.5 0 1 0-1 0h1Zm9 0a.5.5 0 1 0-1 0h1ZM21 25H11v1h10v-1Zm3.5-14.5v11h1v-11h-1Zm-18 0v11h1v-11h-1ZM21 6H11v1h10V6Zm4.5 4.5A4.5 4.5 0 0 0 21 6v1a3.5 3.5 0 0 1 3.5 3.5h1Zm-18 0A3.5 3.5 0 0 1 11 7V6a4.5 4.5 0 0 0-4.5 4.5h1ZM11 25a3.5 3.5 0 0 1-3.5-3.5h-1A4.5 4.5 0 0 0 11 26v-1Zm10 1a4.5 4.5 0 0 0 4.5-4.5h-1A3.5 3.5 0 0 1 21 25v1Zm-1-14.385c0 2.134-1.779 3.885-4 3.885v1c2.75 0 5-2.175 5-4.885h-1ZM16 15.5c-2.222 0-4-1.751-4-3.885h-1c0 2.71 2.25 4.885 5 4.885v-1Zm-4-3.885v-1.461h-1v1.461h1Zm9 0v-1.461h-1v1.461h1Z" fill="#000"/></svg>
